X: 28144
T: Mrs Gordon Of Knockespoch
R: reel
M: 4/4
K: Fmajor
A|F<F ~F2 (Ac)cd|_efgE GBBd|cF ~F2 (Ac)cb|afge fdcA|
F<F ~F2 (Ac)cd|_efgE GBBd|cF ~F2 (Ac)cb|afge f2f||
g|afcf cfaf|bgaf eggb|afcf cfaf|ecde f2 fg|
afcf cfaf|bgaf eggb|afge fdcA|cfge ~f2f||

